X:127
M:C
L:1/8
K:B_
d|B<B, B,/B,/B, F>B, D<d|B>B, D/B/d c>AB>G|F>B, B,/B,/B, F>B, D<B|
d|B>f d<f F<B D>d|B<f d>f g>B f<d|B>f d<f F<B D>B|C<C D>F G2 G>d|

